X:1
T:Glad Easter Morn
T:Asa Hull
T:Glad Easter Morn
T:Public Domain
T:Public Domain
C:Asa Hull
Z:Public Domain
%%score ( 1 2 ) ( 3 4 )
L:1/8
M:6/8
K:Bb
V:1 treble 
V:2 treble 
V:3 bass 
V:4 bass 
V:1
 [DF] | [DB]2 [Fd] (cB)[EG] | [DF]2 [B,D] [DF]2 [FB] | [FA]2 [FB] [Fc]2 [F^c] | [Fd]3- [Fd]2 [DF] | %5
w: 1.~Wel-|come, sweet dawn- * ing|the morn, That saw|our Sav- ior rise;|Wel- * come|
w: 2.~We’ll|join with an- * gels|their song, Loud hal-|le- lu- jahs sing;|Come * one|
w: 3.~Sing|vic- tory, vic- * tory|ver death, Our worst|and lat- est foe;|Our * lov-|
 [DB]2 [Fd] (cB)[EG] [DF]2 [B,D] [DF]2 [FB] | [FA]2 [Ac] ([Ac][GB])[=EG] | F3- F2 F | %8
w: the glor- ious, * sac- red light, That burst|east- ern skies. * Se-|rene * and|
w: and all, His * praise pro- long, Till Heav’n|e- choes ring. * We|mag- * ni-|
w: ing Sav- ior * broke the bars, That He|power might show. * List!|ye * re-|
 [Fe]2 [Fe] [Fd]2 [Fd] | [Ec]2 [EF] [EF]2 [EF] | [Dd]2 [Fd] [Ec]2 [Ec] | [DB]3- [DB]2 [DF] | %12
w: ear- ly dawn, While|na- ture breathed re-|pose, Ere Ma- ry|sought * that|
w: ris- en Lord, Though|once for sin- ners|slain; He bore our|sor- * rows|
w: hear the words, And|cease, ye weep- ing|eyes; First, on the|re- * sur-|
 [B,D]2 [CE] [DF]2 [Fd] | [Gc]2 [GB] [EG]2 [^CG] | [DF]2 [DB] (AG)[EA] | [DB]3- [DB]2 || %16
w: lone- ly tomb, Our|dear Re- deem- er|rose. He rose, * He|He *|
w: and our cares, Yet|lives in Heaven a-|gain. * * * *||
w: rect- ion morn, The|dead in Christ shall|rise. * * * *||
"^Refrain" d | z2 ^F G2 G | ([^F-d]3 [Fd]2) [d^f] | [df]3 [ce]3 | [Bd]3- [Bd]2 [Gc] | %21
w: rose!||Tri- * umph-|ant over|His * foes!|
w: |||||
w: |||||
 [FB]2 [FB] (AG)[EA] | [DB]3- [DB]2 |] %23
w: ||
w: ||
w: ||
V:2
 x | x3 G2 x | x6 | x6 | x6 | x3 G2 x7 | x6 | F3- F2 F | x6 | x6 | x6 | x6 | x6 | x6 | x3 E2 x | %15
w: |of||||yon||calm * at|||||||rose,|
w: |in||||with||fy * a||||||||
w: |o-||||His||deemed * ones,||||||||
 x5 || x | d3- d3- | x6 | x6 | x6 | x3 E2 x | x5 |] %23
w: ||||||||
w: ||||||||
w: ||||||||
V:3
 [B,,B,] | [B,,F,]2 [B,,B,] [E,B,]2 [E,B,] | [B,,B,]2 [B,,F,] [B,,B,]2 [B,,D] | %3
w: ~|~ ~ ~ ~|~ ~ ~ ~|
 [F,C]2 [F,D] [F,E]2 [F,A,] | [B,,B,]3- [B,,B,]2 [B,,B,] | %5
w: ~ ~ ~ ~|~ * ~|
 [B,,F,]2 [B,,B,] [E,B,]2 [E,B,] [B,,B,]2 [B,,F,] [B,,B,]2 [B,,D] | [C,C]2 [C,C] [C,C]2 [C,B,] | %7
w: ~ ~ ~ ~ ~ ~ ~ ~|~ ~ ~ ~|
 [F,A,]2- [F,A,]3 F, | [F,C]2 [F,C] [F,B,]2 [F,B,] | [F,A,]2 [F,A,] [F,A,]2 [F,A,] | %10
w: ~ * ~|~ ~ ~ ~|~ ~ ~ ~|
 [B,,B,]2 [B,,B,] [F,A,]2 [F,A,] | [B,,B,]3- [B,,B,]2 [B,,B,] | [B,,F,]2 [B,,F,] [B,,B,]2 [B,,B,] | %13
w: ~ ~ ~ ~|~ * ~|~ ~ ~ ~|
 [E,B,]2 [E,B,] [E,B,]2 [=E,B,] | [F,B,]2 [F,B,] [F,C]2 [F,C] | [B,,B,]3- [B,,B,]2 || z | %17
w: ~ ~ ~ ~|~ ~ ~ ~|He *||
 z2 [D,A,] [G,B,]2 [G,B,] | [D,A,]3- [D,A,]2 z | z2 B, [F,A,]2 [F,A,] | B,2 [F,B,] [B,,B,]2 [E,C] | %21
w: rose, He rose,|He *|rose, He rose,|rose! * * *|
 [F,D]2 [F,D] [F,C]2 [F,C] | [B,,B,]3- [B,,B,]2 |] %23
w: ||
V:4
 x | x6 | x6 | x6 | x6 | x12 | x6 | x5 F, | x6 | x6 | x6 | x6 | x6 | x6 | x6 | x5 || x | x6 | x6 | %19
w: |||||||~||||||||||||
 x2 B, x3 | B,2 x4 | x6 | x5 |] %23
w: He||||

